src/lib/packages/icons/src/assets/line/ranking.svg

<svg width="24" height="24" viewBox="0 0 24 24" fill="none" xmlns="http://www.w3.org/2000/svg">
<path d="M19.5 15.25H16.5C16.225 15.25 15.979 15.291 15.75 15.353V12.5C15.75 11.091 14.909 10.25 13.5 10.25H10.5C9.091 10.25 8.25 11.091 8.25 12.5V13.353C8.021 13.291 7.775 13.25 7.5 13.25H4.5C3.091 13.25 2.25 14.091 2.25 15.5V21C2.25 21.414 2.586 21.75 3 21.75H9H15H21C21.414 21.75 21.75 21.414 21.75 21V17.5C21.75 16.091 20.909 15.25 19.5 15.25ZM3.75 15.5C3.75 14.911 3.911 14.75 4.5 14.75H7.5C8.089 14.75 8.25 14.911 8.25 15.5V20.25H3.75V15.5ZM9.75 15.5V12.5C9.75 11.911 9.911 11.75 10.5 11.75H13.5C14.089 11.75 14.25 11.911 14.25 12.5V17.5V20.25H9.75V15.5ZM20.25 20.25H15.75V17.5C15.75 16.911 15.911 16.75 16.5 16.75H19.5C20.089 16.75 20.25 16.911 20.25 17.5V20.25ZM9.50101 6.90405L9.29201 8.12C9.22001 8.53699 9.388 8.95203 9.73 9.20203C10.074 9.45203 10.521 9.48596 10.897 9.28796L12 8.71106L13.104 9.28894C13.267 9.37394 13.443 9.41602 13.619 9.41602C13.848 9.41602 14.076 9.344 14.27 9.203C14.612 8.954 14.781 8.53897 14.709 8.12097L14.499 6.90295L15.421 6.00806C15.719 5.71806 15.825 5.29297 15.697 4.89697C15.569 4.50097 15.233 4.21906 14.822 4.15906L13.543 3.974L12.993 2.86401C12.805 2.48401 12.425 2.24805 12 2.24805C11.575 2.24805 11.195 2.48401 11.007 2.86401L10.457 3.974L9.179 4.15906C8.767 4.21906 8.43099 4.50097 8.30299 4.89697C8.17499 5.29297 8.28099 5.71806 8.57899 6.00806L9.50101 6.90405ZM10.887 5.42896C11.24 5.37896 11.545 5.15801 11.704 4.83801L12 4.24097L12.296 4.83899C12.455 5.15799 12.76 5.37896 13.112 5.42896L13.767 5.52405L13.296 5.98096C13.038 6.23096 12.921 6.59202 12.983 6.94202L13.095 7.59204L12.502 7.28198C12.345 7.19898 12.172 7.15796 12 7.15796C11.828 7.15796 11.655 7.19898 11.497 7.28198L10.905 7.59204L11.016 6.94495C11.078 6.59095 10.961 6.23096 10.704 5.98096L10.233 5.52295L10.887 5.42896Z" fill="currentColor"/>
</svg>

<svg xmlns="http://www.w3.org/2000/svg" width="24" height="24" fill="none"><path fill="currentColor" d="M19.5 15.25h-3c-.275 0-.521.041-.75.103V12.5c0-1.409-.841-2.25-2.25-2.25h-3c-1.409 0-2.25.841-2.25 2.25v.853a2.831 2.831 0 0 0-.75-.103h-3c-1.409 0-2.25.841-2.25 2.25V21c0 .414.336.75.75.75h18a.75.75 0 0 0 .75-.75v-3.5c0-1.409-.841-2.25-2.25-2.25Zm-15.75.25c0-.589.161-.75.75-.75h3c.589 0 .75.161.75.75v4.75h-4.5V15.5Zm6 0v-3c0-.589.161-.75.75-.75h3c.589 0 .75.161.75.75v7.75h-4.5V15.5Zm10.5 4.75h-4.5V17.5c0-.589.161-.75.75-.75h3c.589 0 .75.161.75.75v2.75ZM9.501 6.904 9.292 8.12c-.072.417.096.832.438 1.082a1.1 1.1 0 0 0 1.167.086L12 8.711l1.104.578a1.111 1.111 0 0 0 1.166-.086 1.1 1.1 0 0 0 .439-1.082l-.21-1.218.922-.895c.298-.29.404-.715.276-1.111a1.076 1.076 0 0 0-.875-.738l-1.279-.185-.55-1.11A1.1 1.1 0 0 0 12 2.248a1.1 1.1 0 0 0-.993.616l-.55 1.11-1.278.185c-.412.06-.748.342-.876.738-.128.396-.022.821.276 1.111l.922.896Zm1.386-1.475c.353-.05.658-.271.817-.591L12 4.241l.296.598c.159.319.464.54.816.59l.655.095-.471.457c-.258.25-.375.611-.313.961l.112.65-.593-.31a1.075 1.075 0 0 0-1.005 0l-.592.31.111-.647a1.083 1.083 0 0 0-.312-.964l-.471-.458.654-.094Z"/></svg>
